X:1
T:Jesus
T:Jesus
T:William Marion Runyan
T:William Marion Runyan, 1918
T:Public Domain Courtesy of the Cyber Hymnal™
C:William Marion Runyan
Z:Public Domain
Z:Courtesy of the Cyber Hymnal™
%%score ( 1 2 ) ( 3 4 )
L:1/8
Q:1/4=135
M:6/4
K:Ab
V:1 treble 
V:2 treble 
V:3 bass 
V:4 bass 
V:1
 [CE]2 [CF]2 [CG]2 [CA]3 [CG] [CF]2 | [DG]4 [DG]2 [DE]6 | [DE]2 [DF]2 [DG]2 [Dc]3 [DB] [DG]2 | %3
w: 1.~All that my soul in its|sin can need,|All that my faith in its|
w: 2.~My on- ly claim for all|sin for- giv’n,|Ground for my hope of a|
w: 3.~Bread for the soul when I|hun- ger sore,|Grace for my heart when I|
 [DF]4 [DG]2 [CE]6 | [EA]2 [EB]2 [Ec]2 [Ee]4 [Ec]2 | [Ed]2 [Ec]2 [FB]2 ([DF]2 [=B,G]2) [CA]2 | %6
w: prayer can plead;|Cen- ter of life and|soul of my creed * Is|
w: home in Heav’n;|Pow- er through which my|chains are all riven * Is|
w: thirst for more;|Shel- ter- ing rock when|storms ’round me roar * Is|
 (c4 d2) [Ec]4 [DB]2 | [CA]6- [CA]4 z2 ||"^Refrain" [Ec]3 [DB] [CA]2 [CE]2 [CF]2 [CA]2 | %9
w: Je- * sus to|me. *||
w: Je- * sus to|me. *|He is my Rock in a|
w: Je- * sus to|me. *||
 [DA]4 [DG]2 [DG]6 | [Gd]3 [Ac] [GB]2 F2 [EG]2 [EB]2 | [EB]4 [EA]2 [CE]6 | %12
w: |||
w: wear- y land,|He is my Spring ’midst the|de- sert sand;|
w: |||
 [Ee]3 [Ed] [Ec]2 [Ec]2 [EB]2 [_GA]2 | [Fd]4 [Fd]2 [DF]4 [=B,F]2 | [CE]6 [Ec]6 | [DB]6 [CA]6 |] %16
w: ||||
w: Strength in my weak- ness that|I may stand, Is|Je- sus,|Je- sus.|
w: ||||
V:2
 x12 | x12 | x12 | x12 | x12 | x12 | E6 x6 | x12 || x12 | x12 | x6 F2 x4 | x12 | x12 | x12 | x12 | %15
 x12 |] %16
V:3
 [A,,A,]2 [A,,A,]2 [A,,A,]2 [A,,E,]3 [A,,E,] [A,,A,]2 | [E,B,]4 [E,B,]2 [E,G,]6 | %2
 [E,G,]2 [E,A,]2 [E,B,]2 [E,G,]3 [E,G,] [E,B,]2 | [E,B,]4 [E,B,]2 [A,,A,]6 | %4
 [C,A,]2 [B,,G,]2 [A,,A,]2 [C,A,]4 [A,,A,]2 | [B,,G,]2 [C,A,]2 [D,A,]2 A,4 [F,A,]2 | %6
 (A,4 G,2) [E,A,]4 E,2 | [A,,E,]6- [A,,E,]4 z2 || %8
 [A,,A,]3 [A,,A,] [A,,A,]2 [A,,A,]2 [A,,A,]2 [A,,E,]2 | [B,,E,]4 [B,,E,]2 [E,B,]6 | %10
 [E,B,]3 [E,E] [E,D]2 [G,D]2 [E,D]2 [E,D]2 | [A,,C]4 [A,,C]2 [A,,A,]6 | %12
 [C,A,]3 [B,,G,] [A,,A,]2 [A,,A,]2 [B,,G,]2 [C,A,]2 | [D,A,]4 [D,A,]2 [D,A,]4 [=D,A,]2 | %14
 [E,A,]6 [E,A,]6 | [E,G,]6 [A,,E,A,]6 |] %16
V:4
 x12 | x12 | x12 | x12 | x12 | x6 (D,2 =D,2) x2 | E,6 E,2 x4 | x12 || x12 | x12 | x12 | x12 | x12 | %13
 x12 | x12 | x12 |] %16

